X: 23
T: No_117_Frog_Dance_Song.krn
N: Derived from No_117_Frog_Dance_Song.krn
%%abc-version 2.0
%%abcx-abcm2ps-target-version 5.9.1 (29 Sep 2008)
%%abc-creator hum2abc beta
%%abcx-conversion-date 2019/03/15 08:35:44
%%humdrum-veritas 2896564605
%%humdrum-veritas-data 3457285091
%%linebreak <none>
%%barnumbers 0
L: 1/8
M: 2/4
K: B clef=bass
[K:clef=bass][M:2/4](3CCCC2 | 
CB, F,F, | 
(3F,B,B, F, z | 
G,F, F,F, | 
(3F,B,B, F, z | 
G,G, F,F, | 
(3F,B,B, F, z | 
G,G, F,F, | 
(3F,B,B, F, z ||  
[M:3/4](3CCCC4 ||  
[M:2/4]CC B,B, | 
(3B,CB, F, z | 
B,F, F,F, | 
(3F,B,B, F, z | 
G,G, F,F, | 
(3F,B,B, F, z | 
G,G, F,F, |]  



